X:3383
T:La chasse  la bcasse
O:england
M:3/4
L:1/4
K:G
GFG|E>F G|ABA|G2F|GFG|E>F G|AGF|G3:|\
DGA|B3|
AGF|1 E2E|EFG|A3|\
AGF|D3:|2 E3|FGF|E3-|E3-|E3||
